src/app/assets/icons/legal.svg

<svg width="24" height="24" viewBox="0 0 24 24" fill="none" xmlns="http://www.w3.org/2000/svg">
<path d="M1.90234 21.1016V19.1016H10.9023V7.92656C10.469 7.77656 10.094 7.54323 9.77734 7.22656C9.46068 6.9099 9.22734 6.5349 9.07734 6.10156H5.90234L8.90234 13.1016C8.90234 13.9349 8.56068 14.6432 7.87734 15.2266C7.19401 15.8099 6.36901 16.1016 5.40234 16.1016C4.43568 16.1016 3.61068 15.8099 2.92734 15.2266C2.24401 14.6432 1.90234 13.9349 1.90234 13.1016L4.90234 6.10156H2.90234V4.10156H9.07734C9.27734 3.51823 9.63568 3.03906 10.1523 2.66406C10.669 2.28906 11.2523 2.10156 11.9023 2.10156C12.5523 2.10156 13.1357 2.28906 13.6523 2.66406C14.169 3.03906 14.5273 3.51823 14.7273 4.10156H20.9023V6.10156H18.9023L21.9023 13.1016C21.9023 13.9349 21.5607 14.6432 20.8773 15.2266C20.194 15.8099 19.369 16.1016 18.4023 16.1016C17.4357 16.1016 16.6107 15.8099 15.9273 15.2266C15.244 14.6432 14.9023 13.9349 14.9023 13.1016L17.9023 6.10156H14.7273C14.5773 6.5349 14.344 6.9099 14.0273 7.22656C13.7107 7.54323 13.3357 7.77656 12.9023 7.92656V19.1016H21.9023V21.1016H1.90234ZM16.5273 13.1016H20.2773L18.4023 8.75156L16.5273 13.1016ZM3.52734 13.1016H7.27734L5.40234 8.75156L3.52734 13.1016ZM11.9023 6.10156C12.1857 6.10156 12.4232 6.00573 12.6148 5.81406C12.8065 5.6224 12.9023 5.3849 12.9023 5.10156C12.9023 4.81823 12.8065 4.58073 12.6148 4.38906C12.4232 4.1974 12.1857 4.10156 11.9023 4.10156C11.619 4.10156 11.3815 4.1974 11.1898 4.38906C10.9982 4.58073 10.9023 4.81823 10.9023 5.10156C10.9023 5.3849 10.9982 5.6224 11.1898 5.81406C11.3815 6.00573 11.619 6.10156 11.9023 6.10156Z" fill="currentColor"/>
</svg>

<svg xmlns="http://www.w3.org/2000/svg" width="24" height="24" fill="none"><path fill="currentColor" d="M1.902 21.102v-2h9V7.927a2.92 2.92 0 0 1-1.825-1.825H5.902l3 7q0 1.25-1.025 2.125t-2.475.875-2.475-.875-1.025-2.125l3-7h-2v-2h6.175a2.9 2.9 0 0 1 1.075-1.438 2.9 2.9 0 0 1 1.75-.562q.976 0 1.75.562a2.9 2.9 0 0 1 1.075 1.438h6.175v2h-2l3 7q0 1.25-1.025 2.125t-2.475.875q-1.449 0-2.475-.875-1.025-.876-1.025-2.125l3-7h-3.175a2.92 2.92 0 0 1-1.825 1.825v11.175h9v2zm14.625-8h3.75l-1.875-4.35zm-13 0h3.75l-1.875-4.35zm8.375-7q.426 0 .713-.288a.97.97 0 0 0 .287-.712.97.97 0 0 0-.287-.713.97.97 0 0 0-.713-.287.97.97 0 0 0-.712.287.97.97 0 0 0-.288.713q0 .424.288.712t.712.288"/></svg>
